X:1
T:Title
%%score [ 1 2 ] { ( 3 5 ) | ( 4 6 ) } { 7 | 8 }
L:1/8
Q:1/4=120
M:3/4
K:D
V:1 treble-8 nm="Tenor"
V:2 bass nm="Baß"
V:3 treble nm="Piano 1"
V:5 treble 
V:4 treble 
V:6 treble 
V:7 bass nm="Piano 2"
V:8 bass 
V:1
!p! d4 c2 | B4 e2 | (f2 e2) c2 | (A2 d4) |!p! d4 _B2 | =F4 G2 | A6 | A4 z2 ::!<(! B4 B2 | %9
w: Sieh', wie|ist die|Wel- * le|klar, _|blickt der|Mond her-|nie-|der!|Die du|
 c4 d2!<)! | f4 e2 | (e4 d2) | d4 B2 | F4 G2 |!>(! A6!>)! | F4 z2 :| %16
w: mei- ne|Lie- be|bist, _|lie- be|du mich|wie-|der!|
V:2
!p! F,4 A,2 | G,4 G,2 | (A,2 G,2) G,2 | (G,2 F,4) |!p! =F,4 D,2 | D,4 D,2 | D,6 | C,4 z2 :: %8
w: Sieh', wie|ist die|Wel- * le|klar, _|blickt der|Mond her-|nie-|der!|
!<(! A,4 A,2 | ^G,4 G,2!<)! | =G,4 G,2 | (F,4 =C2) | B,4 G,2 | D,4 D,2 |!>(! (D,4 ^C,2)!>)! | %15
w: Die du|mei- ne|Lie- be|bist, _|lie- be|du mich|wie- *|
 D,4 z2 :| %16
w: der!|
V:3
!p! (FfdFAc) | z6 | (cc'ac) z2 | z2 (ff'd'a) | (=f'2 e'2 f'2 | e'2 d'2 e'2 | d'2 c'2 b2 | %7
 a2 g2 e2) :: (B3 ^A Bd) | (c3 B df) | (f3 ^d eb) | (b3 ^g ae') |!>(! z ([bd']2 [gb]2 [dg]) | %13
 z ([fbd']2 [dfb]2 [dg])!>)! | (d4 ^c2) | [df]4 z2 :| %16
V:4
 z6 | (BgeGBd) | z2 z2 (ee' | c'e) z2 z2 | z (=f2 e2 f- | f e2 d2 e- | e d2 c2 B- | B A2 G2 E) :: %8
 z6 |!<(! z6 | z6 | (B3 ^G A!<)!e) | ([Bd]2 [GB]2 [DG]2) | ([FBd]2 [DFB]2 [DG]2) | (D4 ^C2) | %15
 [df]4 z2 :| %16
V:5
 x6 | x6 | x6 | x6 | x6 | x6 | x6 | x6 :: x6 | x6 | x6 | x6 | x6 | x6 | [ea]6 | x6 :| %16
V:6
 x6 | x6 | x6 | x6 | x6 | x6 | x6 | x6 :: x6 | x6 | x6 | x6 | x6 | x6 | [EA]6 | x6 :| %16
V:7
!p! z2 ([F,D]2 [A,C]2) | z2 ([G,B,]2 [G,E]2) | z2 ([G,E]2 [CA]2) | z2 ([DF]2 [F,A,]2) | %4
 z2 [D,=F,]2 [_B,D]2 | z2 ([_B,D]2 [G,G]2) | z2 ([EG]2 [G,A,]2 | [CE]2 [E,A,]2 [G,C]2) :: %8
 z ([D,A,]2 D B,D,) | z ([D,^G,]2 D B,D,) | z ([C,=G,]2 C A,G,) | z ([F,=C]2 F DF,) | %12
!>(! z ([B,D]2 [D,G,]2 [G,B,]) | z ([F,B,]2 [D,F,]2!>)! [D,G,]) | z ([E,G,]2 E,2 [G,A,]) | %15
 z ([F,A,]2 F,A,D,) :| %16
V:8
 (D,,2 D,2) z2 | (D,,2 D,2) z2 | (D,,2 D,2) z2 | (D,,2 D,2) z2 | (_B,,,2 [B,,,_B,,]4) | %5
 (_B,,,2 [B,,,_B,,]4) | (A,,,2 [A,,,A,,]4) | (A,,,2 [A,,,A,,]4) :: (=F,,2 =F,2) z2 | %9
!<(! (E,,2 E,2) z2 | (A,,,2 A,,2) z2 | (D,,,2 D,,2) z2!<)! | (G,,,2 G,,2 G,,,2) | %13
 (B,,,2 B,,2 B,,,2) | (A,,,2 A,,2 A,,,2) | (D,,,2 D,,2) z2 :| %16

